img/map-image.svg

<svg width="446" height="368" viewBox="0 0 446 368" fill="none" xmlns="http://www.w3.org/2000/svg"><path fill="#C4C4C4" d="M0 0h446v368H0z"/><mask id="path-2-inside-1_823_15082" fill="#fff"><path fill-rule="evenodd" clip-rule="evenodd" d="M157.088 121.459l-9.256 15.225-9.257-15.225a10.834 10.834 0 1118.517 0h-.004zm-5.975-8.575a4.167 4.167 0 10-5.892 5.894 4.167 4.167 0 005.892-5.894z"/></mask><path fill-rule="evenodd" clip-rule="evenodd" d="M157.088 121.459l-9.256 15.225-9.257-15.225a10.834 10.834 0 1118.517 0h-.004zm-5.975-8.575a4.167 4.167 0 10-5.892 5.894 4.167 4.167 0 005.892-5.894z" fill="#111"/><path d="M147.832 136.684l-.855.519.855 1.406.854-1.406-.854-.519zm9.256-15.225v-1h-.562l-.292.48.854.52zm-18.513 0l-.855.519h.001l.854-.519zm-1.573-5.444l-1 .017 1-.017zm1.389-5.493l.872.49-.872-.49zm3.973-4.04l.505.863-.505-.863zm10.938 0l.505-.863-.505.863zm3.973 4.04l-.871.49.871-.49zm-.183 10.937v1h.562l.292-.481-.854-.519zm-5.979-8.575l.707-.707-.707.707zm-5.893 0l.707.708-.707-.708zm0 5.893l.707-.707-.707.707zm3.466 18.426l9.257-15.225-1.709-1.039-9.257 15.225 1.709 1.039zm-10.965-15.225l9.256 15.225 1.709-1.039-9.257-15.225-1.708 1.039zm-1.719-5.946a11.833 11.833 0 001.718 5.946l1.71-1.039a9.84 9.84 0 01-1.429-4.941l-1.999.034zm1.518-6a11.82 11.82 0 00-1.518 6l1.999-.034a9.833 9.833 0 011.262-4.986l-1.743-.98zm4.339-4.413a11.832 11.832 0 00-4.339 4.413l1.743.98a9.836 9.836 0 013.606-3.667l-1.01-1.726zm5.974-1.619c-2.099 0-4.161.559-5.974 1.619l1.01 1.726a9.832 9.832 0 014.964-1.345v-2zm5.974 1.619a11.832 11.832 0 00-5.974-1.619v2c1.745 0 3.458.464 4.965 1.345l1.009-1.726zm4.34 4.413a11.834 11.834 0 00-4.34-4.413l-1.009 1.726a9.844 9.844 0 013.606 3.667l1.743-.98zm1.518 6a11.84 11.84 0 00-1.518-6l-1.743.98a9.832 9.832 0 011.261 4.986l2 .034zm-1.719 5.946a11.824 11.824 0 001.719-5.946l-2-.034a9.829 9.829 0 01-1.428 4.941l1.709 1.039zm-.858.481h.004v-2h-.004v2zm-8.921-9.795c.84 0 1.645.334 2.239.928l1.414-1.415a5.166 5.166 0 00-3.653-1.513v2zm-2.24.928a3.168 3.168 0 012.24-.928v-2a5.166 5.166 0 00-3.654 1.513l1.414 1.415zm-.927 2.239c0-.84.334-1.646.927-2.239l-1.414-1.415a5.166 5.166 0 00-1.513 3.654h2zm.927 2.239a3.17 3.17 0 01-.927-2.239h-2c0 1.37.544 2.684 1.513 3.653l1.414-1.414zm2.24.927c-.84 0-1.646-.333-2.24-.927l-1.414 1.414a5.166 5.166 0 003.654 1.513v-2zm2.239-.927a3.165 3.165 0 01-2.239.927v2c1.37 0 2.684-.544 3.653-1.513l-1.414-1.414zm.927-2.239c0 .84-.333 1.645-.927 2.239l1.414 1.414a5.166 5.166 0 001.513-3.653h-2zm-.927-2.239c.594.593.927 1.399.927 2.239h2a5.166 5.166 0 00-1.513-3.654l-1.414 1.415z" fill="#000" mask="url(#path-2-inside-1_823_15082)"/><path d="M410.167 79.668a4.165 4.165 0 110 8.333A4.17 4.17 0 01406 83.834a4.168 4.168 0 014.167-4.166zm0 1.666a2.5 2.5 0 100 5.002 2.5 2.5 0 000-5.002zm-7.834 7.262l7.834 12.883L418 88.596a9.16 9.16 0 00.156-9.255 9.163 9.163 0 00-12.617-3.419 9.165 9.165 0 00-3.206 12.674zm17.09.867l-9.256 15.225-9.257-15.225a10.843 10.843 0 01-1.574-5.444 10.84 10.84 0 015.363-9.533 10.833 10.833 0 0114.728 14.977h-.004zM247.167 264.668a4.167 4.167 0 110 8.334 4.167 4.167 0 010-8.334zm0 1.666a2.5 2.5 0 100 5 2.5 2.5 0 000-5zm-7.834 7.262l7.834 12.883L255 273.596a9.16 9.16 0 00.156-9.255 9.17 9.17 0 00-15.979 0 9.17 9.17 0 00.156 9.255zm17.09.867l-9.256 15.225-9.257-15.225a10.839 10.839 0 013.789-14.977 10.827 10.827 0 0110.938 0 10.824 10.824 0 015.363 9.533 10.834 10.834 0 01-1.573 5.444h-.004z" fill="#000"/></svg>

<svg width="446" height="368" viewBox="0 0 446 368" fill="none" xmlns="http://www.w3.org/2000/svg">
<rect width="446" height="368" fill="#C4C4C4"/>
<mask id="path-2-inside-1_823_15082" fill="white">
<path fill-rule="evenodd" clip-rule="evenodd" d="M157.088 121.459L147.832 136.684L138.575 121.459C137.577 119.816 137.034 117.937 137.002 116.015C136.969 114.093 137.449 112.197 138.391 110.522C139.334 108.847 140.705 107.452 142.364 106.482C144.024 105.511 145.911 105 147.833 105C149.756 105 151.643 105.511 153.302 106.482C154.962 107.452 156.333 108.847 157.275 110.522C158.218 112.197 158.697 114.093 158.665 116.015C158.633 117.937 158.09 119.816 157.092 121.459H157.088ZM151.113 112.884C150.332 112.103 149.272 111.664 148.167 111.664C147.062 111.664 146.002 112.103 145.22 112.884C144.439 113.666 144 114.726 144 115.831C144 116.936 144.439 117.996 145.22 118.777C146.002 119.558 147.062 119.997 148.167 119.997C149.272 119.997 150.332 119.558 151.113 118.777C151.894 117.996 152.333 116.936 152.333 115.831C152.333 114.726 151.894 113.666 151.113 112.884Z"/>
</mask>
<path fill-rule="evenodd" clip-rule="evenodd" d="M157.088 121.459L147.832 136.684L138.575 121.459C137.577 119.816 137.034 117.937 137.002 116.015C136.969 114.093 137.449 112.197 138.391 110.522C139.334 108.847 140.705 107.452 142.364 106.482C144.024 105.511 145.911 105 147.833 105C149.756 105 151.643 105.511 153.302 106.482C154.962 107.452 156.333 108.847 157.275 110.522C158.218 112.197 158.697 114.093 158.665 116.015C158.633 117.937 158.09 119.816 157.092 121.459H157.088ZM151.113 112.884C150.332 112.103 149.272 111.664 148.167 111.664C147.062 111.664 146.002 112.103 145.22 112.884C144.439 113.666 144 114.726 144 115.831C144 116.936 144.439 117.996 145.22 118.777C146.002 119.558 147.062 119.997 148.167 119.997C149.272 119.997 150.332 119.558 151.113 118.777C151.894 117.996 152.333 116.936 152.333 115.831C152.333 114.726 151.894 113.666 151.113 112.884Z" fill="#111111"/>
<path d="M147.832 136.684L146.977 137.203L147.832 138.609L148.686 137.203L147.832 136.684ZM157.088 121.459V120.459H156.526L156.234 120.939L157.088 121.459ZM138.575 121.459L137.72 121.978L137.721 121.978L138.575 121.459ZM137.002 116.015L136.002 116.032L137.002 116.015ZM138.391 110.522L139.263 111.012L138.391 110.522ZM142.364 106.482L142.869 107.345L142.364 106.482ZM153.302 106.482L153.807 105.619V105.619L153.302 106.482ZM157.275 110.522L156.404 111.012L157.275 110.522ZM157.092 121.459V122.459H157.654L157.946 121.978L157.092 121.459ZM151.113 112.884L151.82 112.177L151.82 112.177L151.113 112.884ZM145.22 112.884L145.927 113.592H145.927L145.22 112.884ZM145.22 118.777L145.927 118.07L145.927 118.07L145.22 118.777ZM148.686 137.203L157.943 121.978L156.234 120.939L146.977 136.164L148.686 137.203ZM137.721 121.978L146.977 137.203L148.686 136.164L139.429 120.939L137.721 121.978ZM136.002 116.032C136.037 118.131 136.63 120.184 137.72 121.978L139.43 120.939C138.524 119.448 138.031 117.743 138.001 115.998L136.002 116.032ZM137.52 110.032C136.49 111.862 135.966 113.933 136.002 116.032L138.001 115.998C137.972 114.254 138.407 112.533 139.263 111.012L137.52 110.032ZM141.859 105.619C140.047 106.679 138.549 108.202 137.52 110.032L139.263 111.012C140.118 109.492 141.363 108.226 142.869 107.345L141.859 105.619ZM147.833 104C145.734 104 143.672 104.559 141.859 105.619L142.869 107.345C144.375 106.464 146.089 106 147.833 106V104ZM153.807 105.619C151.995 104.559 149.933 104 147.833 104V106C149.578 106 151.291 106.464 152.798 107.345L153.807 105.619ZM158.147 110.032C157.117 108.202 155.62 106.679 153.807 105.619L152.798 107.345C154.304 108.226 155.548 109.492 156.404 111.012L158.147 110.032ZM159.665 116.032C159.7 113.933 159.176 111.862 158.147 110.032L156.404 111.012C157.259 112.533 157.695 114.254 157.665 115.998L159.665 116.032ZM157.946 121.978C159.037 120.184 159.63 118.131 159.665 116.032L157.665 115.998C157.636 117.743 157.143 119.448 156.237 120.939L157.946 121.978ZM157.088 122.459H157.092V120.459H157.088V122.459ZM148.167 112.664C149.007 112.664 149.812 112.998 150.406 113.592L151.82 112.177C150.851 111.208 149.537 110.664 148.167 110.664V112.664ZM145.927 113.592C146.521 112.998 147.327 112.664 148.167 112.664V110.664C146.796 110.664 145.482 111.208 144.513 112.177L145.927 113.592ZM145 115.831C145 114.991 145.334 114.185 145.927 113.592L144.513 112.177C143.544 113.146 143 114.46 143 115.831H145ZM145.927 118.07C145.334 117.476 145 116.671 145 115.831H143C143 117.201 143.544 118.515 144.513 119.484L145.927 118.07ZM148.167 118.997C147.327 118.997 146.521 118.664 145.927 118.07L144.513 119.484C145.482 120.453 146.796 120.997 148.167 120.997V118.997ZM150.406 118.07C149.812 118.664 149.007 118.997 148.167 118.997V120.997C149.537 120.997 150.851 120.453 151.82 119.484L150.406 118.07ZM151.333 115.831C151.333 116.671 151 117.476 150.406 118.07L151.82 119.484C152.789 118.515 153.333 117.201 153.333 115.831H151.333ZM150.406 113.592C151 114.185 151.333 114.991 151.333 115.831H153.333C153.333 114.46 152.789 113.146 151.82 112.177L150.406 113.592Z" fill="black" mask="url(#path-2-inside-1_823_15082)"/>
<path d="M410.167 79.6676C411.272 79.6676 412.332 80.1066 413.113 80.888C413.894 81.6694 414.333 82.7292 414.333 83.8342C414.333 84.9393 413.894 85.9991 413.113 86.7805C412.332 87.5619 411.272 88.0009 410.167 88.0009C409.062 88.0009 408.002 87.5619 407.22 86.7805C406.439 85.9991 406 84.9393 406 83.8342C406 82.7292 406.439 81.6694 407.22 80.888C408.002 80.1066 409.062 79.6676 410.167 79.6676ZM410.167 81.3342C409.504 81.3342 408.868 81.5976 408.399 82.0665C407.93 82.5353 407.667 83.1712 407.667 83.8342C407.667 84.4973 407.93 85.1332 408.399 85.602C408.868 86.0708 409.504 86.3342 410.167 86.3342C410.83 86.3342 411.466 86.0708 411.934 85.602C412.403 85.1332 412.667 84.4973 412.667 83.8342C412.667 83.1712 412.403 82.5353 411.934 82.0665C411.466 81.5976 410.83 81.3342 410.167 81.3342ZM402.333 88.5959L410.167 101.479L418 88.5959C418.845 87.2059 419.305 85.6161 419.332 83.9898C419.359 82.3634 418.954 80.759 418.156 79.3413C417.359 77.9236 416.199 76.7435 414.795 75.9223C413.391 75.1011 411.793 74.6683 410.167 74.6683C408.54 74.6683 406.943 75.1011 405.539 75.9223C404.135 76.7435 402.974 77.9236 402.177 79.3413C401.38 80.759 400.974 82.3634 401.001 83.9898C401.029 85.6161 401.488 87.2059 402.333 88.5959ZM419.423 89.4626L410.167 104.688L400.91 89.4626C399.912 87.8198 399.369 85.9411 399.336 84.0191C399.304 82.0972 399.784 80.2013 400.726 78.5259C401.669 76.8506 403.04 75.4562 404.699 74.4858C406.358 73.5154 408.246 73.0039 410.168 73.0039C412.091 73.0039 413.978 73.5154 415.637 74.4858C417.297 75.4562 418.668 76.8506 419.61 78.5259C420.553 80.2013 421.032 82.0972 421 84.0191C420.968 85.9411 420.425 87.8198 419.427 89.4626H419.423Z" fill="black"/>
<path d="M247.167 264.668C248.272 264.668 249.332 265.107 250.113 265.888C250.894 266.669 251.333 267.729 251.333 268.834C251.333 269.939 250.894 270.999 250.113 271.781C249.332 272.562 248.272 273.001 247.167 273.001C246.062 273.001 245.002 272.562 244.22 271.781C243.439 270.999 243 269.939 243 268.834C243 267.729 243.439 266.669 244.22 265.888C245.002 265.107 246.062 264.668 247.167 264.668ZM247.167 266.334C246.504 266.334 245.868 266.598 245.399 267.066C244.93 267.535 244.667 268.171 244.667 268.834C244.667 269.497 244.93 270.133 245.399 270.602C245.868 271.071 246.504 271.334 247.167 271.334C247.83 271.334 248.466 271.071 248.934 270.602C249.403 270.133 249.667 269.497 249.667 268.834C249.667 268.171 249.403 267.535 248.934 267.066C248.466 266.598 247.83 266.334 247.167 266.334ZM239.333 273.596L247.167 286.479L255 273.596C255.845 272.206 256.305 270.616 256.332 268.99C256.359 267.363 255.954 265.759 255.156 264.341C254.359 262.924 253.199 261.744 251.795 260.922C250.391 260.101 248.793 259.668 247.167 259.668C245.54 259.668 243.943 260.101 242.539 260.922C241.135 261.744 239.974 262.924 239.177 264.341C238.38 265.759 237.974 267.363 238.001 268.99C238.029 270.616 238.488 272.206 239.333 273.596ZM256.423 274.463L247.167 289.688L237.91 274.463C236.912 272.82 236.369 270.941 236.336 269.019C236.304 267.097 236.784 265.201 237.726 263.526C238.669 261.851 240.04 260.456 241.699 259.486C243.358 258.515 245.246 258.004 247.168 258.004C249.091 258.004 250.978 258.515 252.637 259.486C254.297 260.456 255.668 261.851 256.61 263.526C257.553 265.201 258.032 267.097 258 269.019C257.968 270.941 257.425 272.82 256.427 274.463H256.423Z" fill="black"/>
</svg>
